packages/assets/static/images/icons/barn.svg

<svg width="24" height="24" viewBox="0 0 24 24" xmlns="http://www.w3.org/2000/svg">
<path d="M22.5028 19.4996H21.7528V13.7405L21.8925 13.9355C21.9477 14.0205 22.0195 14.0934 22.1037 14.1498C22.1878 14.2062 22.2825 14.245 22.3821 14.2638C22.4816 14.2826 22.584 14.281 22.6829 14.2592C22.7818 14.2374 22.8753 14.1957 22.9577 14.1368C23.0401 14.0779 23.1097 14.0028 23.1623 13.9162C23.2149 13.8297 23.2494 13.7333 23.2638 13.633C23.2781 13.5327 23.272 13.4306 23.2458 13.3327C23.2196 13.2349 23.1738 13.1433 23.1112 13.0637L19.3612 7.81365C19.3099 7.74252 19.2464 7.68097 19.1737 7.63178L12.8466 3.25928L12.8372 3.25271C12.5907 3.08825 12.301 3.00049 12.0047 3.00049C11.7084 3.00049 11.4187 3.08825 11.1722 3.25271L11.1628 3.25928L4.82624 7.63271C4.75358 7.6819 4.69012 7.74346 4.63874 7.81459L0.88874 13.0646C0.826176 13.1443 0.780404 13.2358 0.754187 13.3337C0.727969 13.4315 0.721849 13.5337 0.736197 13.634C0.750544 13.7343 0.785061 13.8306 0.837665 13.9172C0.890269 14.0038 0.959869 14.0788 1.04227 14.1377C1.12466 14.1967 1.21815 14.2383 1.31708 14.2601C1.41601 14.282 1.51834 14.2835 1.61788 14.2647C1.71743 14.2459 1.81214 14.2071 1.89629 14.1507C1.98044 14.0943 2.05228 14.0214 2.10749 13.9365L2.2528 13.7405V19.4996H1.5028C1.30389 19.4996 1.11312 19.5786 0.972472 19.7193C0.83182 19.8599 0.752802 20.0507 0.752802 20.2496C0.752802 20.4485 0.83182 20.6393 0.972472 20.7799C1.11312 20.9206 1.30389 20.9996 1.5028 20.9996H22.5028C22.7017 20.9996 22.8925 20.9206 23.0331 20.7799C23.1738 20.6393 23.2528 20.4485 23.2528 20.2496C23.2528 20.0507 23.1738 19.8599 23.0331 19.7193C22.8925 19.5786 22.7017 19.4996 22.5028 19.4996ZM3.7528 11.6405L5.78718 8.7924L12.0028 4.49959L18.2184 8.79146L20.2528 11.6405V19.4996H18.0028V12.7496C18.0028 12.5507 17.9238 12.3599 17.7831 12.2193C17.6425 12.0786 17.4517 11.9996 17.2528 11.9996H6.7528C6.55389 11.9996 6.36312 12.0786 6.22247 12.2193C6.08182 12.3599 6.0028 12.5507 6.0028 12.7496V19.4996H3.7528V11.6405ZM12.0028 15.578L9.09655 13.4996H14.9091L12.0028 15.578ZM16.5028 14.2074V18.7927L13.2928 16.4996L16.5028 14.2074ZM10.7128 16.4996L7.5028 18.7927V14.2074L10.7128 16.4996ZM12.0028 17.4212L14.9091 19.4996H9.09655L12.0028 17.4212ZM9.7528 9.74959C9.7528 9.55068 9.83182 9.35991 9.97247 9.21926C10.1131 9.07861 10.3039 8.99959 10.5028 8.99959H13.5028C13.7017 8.99959 13.8925 9.07861 14.0331 9.21926C14.1738 9.35991 14.2528 9.55068 14.2528 9.74959C14.2528 9.9485 14.1738 10.1393 14.0331 10.2799C13.8925 10.4206 13.7017 10.4996 13.5028 10.4996H10.5028C10.3039 10.4996 10.1131 10.4206 9.97247 10.2799C9.83182 10.1393 9.7528 9.9485 9.7528 9.74959Z"/>
</svg>

<svg viewBox="0 0 24 24" xmlns="http://www.w3.org/2000/svg" aria-hidden="true" fill="currentColor"><path d="M22.503 19.5h-.75v-5.76l.14.195a.749.749 0 0 0 1.37-.302.75.75 0 0 0-.152-.57l-3.75-5.25a.8.8 0 0 0-.187-.181l-6.327-4.373-.01-.006a1.5 1.5 0 0 0-1.665 0l-.01.006-6.336 4.374a.8.8 0 0 0-.187.182l-3.75 5.25a.75.75 0 1 0 1.218.872l.146-.196V19.5h-.75a.75.75 0 1 0 0 1.5h21a.75.75 0 1 0 0-1.5m-18.75-7.86 2.034-2.848L12.003 4.5l6.215 4.291 2.035 2.85V19.5h-2.25v-6.75a.75.75 0 0 0-.75-.75h-10.5a.75.75 0 0 0-.75.75v6.75h-2.25zm8.25 3.938L9.097 13.5h5.812zm4.5-1.37v4.585l-3.21-2.293zm-5.79 2.292-3.21 2.293v-4.586zm1.29.921 2.906 2.079H9.097zM9.753 9.75a.75.75 0 0 1 .75-.75h3a.75.75 0 1 1 0 1.5h-3a.75.75 0 0 1-.75-.75"/></svg>
